tools/download-figma-icons/icons/solid/e-bike.svg

<svg width="24" height="24" viewBox="0 0 24 24" fill="none" xmlns="http://www.w3.org/2000/svg">
<path fill-rule="evenodd" clip-rule="evenodd" d="M24 15.5925C24 17.9025 22.125 19.7774 19.815 19.7774C17.505 19.7774 15.63 17.9025 15.63 15.5925C15.63 14.205 16.32 12.9675 17.37 12.21L10.6575 14.055L11.0325 15.3975C11.0925 15.6225 11.0475 15.8625 10.905 16.05C10.7625 16.2375 10.545 16.3425 10.3125 16.3425H8.29504C7.94254 18.2925 6.23255 19.7774 4.18505 19.7774C1.87506 19.7774 6.1035e-05 17.9025 6.1035e-05 15.5925C6.1035e-05 13.29 1.87506 11.4075 4.18505 11.4075C4.92005 11.4075 5.61755 11.6025 6.21754 11.9475C6.80254 11.4975 7.47004 11.115 8.22004 10.8675L7.15504 7.04248H6.67504C6.25504 7.04248 5.92505 6.70498 5.92505 6.29248C5.92505 5.87999 6.25504 5.54249 6.67504 5.54249H9.72004C10.1325 5.54249 10.47 5.87999 10.47 6.29248C10.47 6.70498 10.1325 7.04248 9.72004 7.04248H8.71504L9.86254 11.19C9.87004 11.1975 9.87004 11.205 9.87004 11.22L10.0575 11.88L17.6175 9.80247L16.8825 7.16248C16.8375 6.97498 16.86 6.77248 16.95 6.59998L17.685 5.24999H15.99C15.5775 5.24999 15.24 4.91249 15.24 4.49999C15.24 4.08749 15.5775 3.74999 15.99 3.74999H18.9375C19.2075 3.74999 19.4475 3.89249 19.5825 4.11749C19.7175 4.34249 19.725 4.62749 19.5975 4.85999L18.4125 7.04998L19.6275 11.4225C19.6875 11.415 19.755 11.4075 19.815 11.4075C22.125 11.4075 24 13.29 24 15.5925Z" fill="black"/>
</svg>

<svg width="24" height="24" viewBox="0 0 24 24" fill="none" xmlns="http://www.w3.org/2000/svg"><path fill-rule="evenodd" clip-rule="evenodd" d="M24 15.592a4.187 4.187 0 0 1-4.185 4.185 4.187 4.187 0 0 1-4.185-4.185c0-1.387.69-2.625 1.74-3.382l-6.713 1.845.376 1.343a.754.754 0 0 1-.128.652.739.739 0 0 1-.592.293H8.294a4.186 4.186 0 0 1-4.11 3.434A4.187 4.187 0 0 1 0 15.592a4.191 4.191 0 0 1 4.185-4.184c.735 0 1.433.194 2.033.54a6.772 6.772 0 0 1 2.002-1.08L7.155 7.041h-.48a.747.747 0 0 1-.75-.75c0-.412.33-.75.75-.75H9.72c.412 0 .75.338.75.75 0 .413-.338.75-.75.75H8.715l1.148 4.148c.007.008.007.015.007.03l.188.66 7.56-2.078-.735-2.64a.813.813 0 0 1 .067-.562l.735-1.35H15.99a.752.752 0 0 1-.75-.75c0-.413.338-.75.75-.75h2.947a.75.75 0 0 1 .66 1.11l-1.184 2.19 1.215 4.372a1.68 1.68 0 0 1 .187-.014A4.191 4.191 0 0 1 24 15.591Z" fill="currentColor"/></svg>
